KINDER
CUT[UFM BERGN DA GIEHT DAR WIND]
REG[Europa, Mitteleuropa, Deutschland, Oberschlesien]
KEY[K0129  16  G 6/8]
MEL[54  3_.43_2_3_2_  1__.0__
    54  3_.43_2_3_2_  1__.0__
    3_  2_3_4#_5_2_-7_  1_-6_2_-5__
    3_  2_3_4#_5_2_-7_  1_-6_2_-5__
    4_  3_2_2_2_1_1_  -7_-6_-7_1__
    4_  3_2_2_2_1_1_  -7_-6_-7_1__
    -5_  1_1_1_3b_2_1_  -7_1_2_-5__
    -5_  1_1_1_3b_2_1_  -7_1_2_-5__0_
    3__.1__.  3__.1__. //] >>
FCT[Kinder -, Wiegen - Lied]
